build/svg/svx/res/marker-rectplus11-1.svg

<?xml version="1.0" encoding="UTF-8" standalone="no"?>
<svg
   xmlns:dc="http://purl.org/dc/elements/1.1/"
   xmlns:cc="http://creativecommons.org/ns#"
   xmlns:rdf="http://www.w3.org/1999/02/22-rdf-syntax-ns#"
   xmlns:svg="http://www.w3.org/2000/svg"
   xmlns="http://www.w3.org/2000/svg"
   xmlns:sodipodi="http://sodipodi.sourceforge.net/DTD/sodipodi-0.dtd"
   xmlns:inkscape="http://www.inkscape.org/namespaces/inkscape"
   viewBox="0 0 11 11"
   version="1.1"
   id="svg6"
   sodipodi:docname="marker-rectplus11-1.svg"
   inkscape:version="0.92.5 (2060ec1f9f, 2020-04-08)"
   inkscape:export-filename="/home/jupiter007/Libreoffice yaru theme fullcolor/build/svx/res/marker-rectplus11-1.png"
   inkscape:export-xdpi="95"
   inkscape:export-ydpi="95">
  <metadata
     id="metadata12">
    <rdf:RDF>
      <cc:Work
         rdf:about="">
        <dc:format>image/svg+xml</dc:format>
        <dc:type
           rdf:resource="http://purl.org/dc/dcmitype/StillImage" />
      </cc:Work>
    </rdf:RDF>
  </metadata>
  <defs
     id="defs10" />
  <sodipodi:namedview
     pagecolor="#ffffff"
     bordercolor="#666666"
     borderopacity="1"
     objecttolerance="10"
     gridtolerance="10"
     guidetolerance="10"
     inkscape:pageopacity="0"
     inkscape:pageshadow="2"
     inkscape:window-width="1920"
     inkscape:window-height="1011"
     id="namedview8"
     showgrid="false"
     inkscape:zoom="1"
     inkscape:cx="-271.25655"
     inkscape:cy="66.067743"
     inkscape:window-x="0"
     inkscape:window-y="32"
     inkscape:window-maximized="1"
     inkscape:current-layer="svg6" />
  <path
     d="m0 0v11h11v-11zm5 1h1v1 3h3 1v1h-1-3v3 1h-1v-1-3h-3-1v-1h1 3v-3z"
     fill="#762572"
     opacity=".8"
     id="path2"
     style="fill:#80a3fa;fill-opacity:1" />
  <path
     d="m5 1v4h-4v1h4v4h1v-4h4v-1h-4v-4z"
     fill="#fff"
     opacity=".8"
     id="path4"
     style="fill:#232629;fill-opacity:1" />
</svg>

<svg xmlns="http://www.w3.org/2000/svg" viewBox="0 0 11 11"><path d="M0 0v11h11V0zm5 1h1v4h4v1H6v4H5V6H1V5h4V2z" fill="#80a3fa" opacity=".8"/><path d="M5 1v4H1v1h4v4h1V6h4V5H6V1z" fill="#232629" opacity=".8"/></svg>
